src/assets/ikoner/burgermeny.svg

<svg width="16" height="15" viewBox="0 0 16 15" fill="none" xmlns="http://www.w3.org/2000/svg">
<path fill-rule="evenodd" clip-rule="evenodd" d="M0.0712891 2.33333C0.0712891 1.414 0.819289 0.666666 1.73796 0.666666C2.65729 0.666666 3.40462 1.414 3.40462 2.33333C3.40462 3.252 2.65729 4 1.73796 4C0.819289 4 0.0712891 3.252 0.0712891 2.33333ZM15.262 3H5.78462C5.41662 3 5.11796 2.702 5.11796 2.33333C5.11796 1.96533 5.41662 1.66667 5.78462 1.66667H15.262C15.63 1.66667 15.9286 1.96533 15.9286 2.33333C15.9286 2.702 15.63 3 15.262 3ZM1.73796 6C0.819289 6 0.0712891 6.74733 0.0712891 7.66667C0.0712891 8.58533 0.819289 9.33333 1.73796 9.33333C2.65729 9.33333 3.40462 8.58533 3.40462 7.66667C3.40462 6.74733 2.65729 6 1.73796 6ZM5.78462 7H15.262C15.6293 7 15.9286 7.29867 15.9286 7.66667C15.9286 8.03533 15.63 8.33333 15.262 8.33333H5.78462C5.41662 8.33333 5.11796 8.03533 5.11796 7.66667C5.11796 7.29867 5.41662 7 5.78462 7ZM1.73796 11.3333C0.819289 11.3333 0.0712891 12.0807 0.0712891 13C0.0712891 13.9187 0.819289 14.6667 1.73796 14.6667C2.65729 14.6667 3.40462 13.9187 3.40462 13C3.40462 12.0807 2.65729 11.3333 1.73796 11.3333ZM5.78462 12.3333H15.262C15.6293 12.3333 15.9286 12.632 15.9286 13C15.9286 13.3687 15.63 13.6667 15.262 13.6667H5.78462C5.41662 13.6667 5.11796 13.3687 5.11796 13C5.11796 12.632 5.41662 12.3333 5.78462 12.3333Z" fill="#0067C5"/>
</svg>

<svg width="16" height="15" fill="none" xmlns="http://www.w3.org/2000/svg"><path fill-rule="evenodd" clip-rule="evenodd" d="M.071 2.333A1.668 1.668 0 111.738 4 1.669 1.669 0 01.071 2.333zM15.262 3H5.785a.666.666 0 110-1.333h9.477a.667.667 0 010 1.333zM1.738 6C.819 6 .071 6.747.071 7.667c0 .918.748 1.666 1.667 1.666.92 0 1.667-.748 1.667-1.666C3.405 6.747 2.657 6 1.738 6zm4.047 1h9.477a.667.667 0 010 1.333H5.785a.666.666 0 110-1.333zm-4.047 4.333c-.919 0-1.667.748-1.667 1.667s.748 1.667 1.667 1.667c.92 0 1.667-.748 1.667-1.667 0-.92-.748-1.667-1.667-1.667zm4.047 1h9.477a.667.667 0 010 1.334H5.785a.666.666 0 110-1.334z" fill="#0067C5"/></svg>
